X:527
T: Daxi chuyou xibian sha
N: C1171
O: China,Fujian, Zhangzhou
S: II, 606]
M: 2/4
L: 1/8
K: D
efed | efe2- | ef
de | f2ed | B4 |
ee3 | ABAF | E4 |
e2e2 | BecB | A4- | A2z2 |
efed | efe2- | ef
de | f2ed | B4 |
ee3 | ABAF | E4 |
e2e2 | BecB | A4- | A2z2

@@@ Tune index: 6528
